public/icons/icon/arrowhead-triangle-inverted.svg

<svg width="30" height="30" viewBox="0 0 30 30" fill="none" xmlns="http://www.w3.org/2000/svg">
<path d="M1 14C0.447715 14 0 14.4477 0 15C5.96046e-08 15.5523 0.447715 16 1 16L1 14ZM29 2H30C30 1.62447 29.7896 1.2806 29.4553 1.10964C29.1209 0.938677 28.7189 0.969452 28.4145 1.18932L29 2ZM29 28L28.4145 28.8107C28.7189 29.0305 29.1209 29.0613 29.4553 28.8904C29.7896 28.7194 30 28.3755 30 28H29ZM1 16L11 16V14L1 14L1 16ZM28 2V28H30V2H28ZM29.5855 27.1893L11.5855 14.1893L10.4145 15.8107L28.4145 28.8107L29.5855 27.1893ZM11.5855 15.8107L29.5855 2.81068L28.4145 1.18932L10.4145 14.1893L11.5855 15.8107Z" fill="black"/>
</svg>

<svg xmlns="http://www.w3.org/2000/svg" width="30" height="30" fill="none"><path fill="#000" d="M1 14a1 1 0 1 0 0 2v-2ZM29 2h1a1 1 0 0 0-1.585-.81L29 2Zm0 26-.585.81A1 1 0 0 0 30 28h-1ZM1 16h10v-2H1v2ZM28 2v26h2V2h-2Zm1.585 25.19-18-13-1.17 1.62 18 13 1.17-1.62Zm-18-11.38 18-13-1.17-1.62-18 13 1.17 1.62Z"/></svg>
